X: 10
T: Boys Of Malin, The
Z: RobSheldrick
S: https://thesession.org/tunes/11#setting52599
R: reel
M: 4/4
L: 1/8
K: Amaj
|:ABc/c/d eAce|fedf edcB|ABc/c/d eAce|1 feBc d2cB:|2 feBc defg||
aAc/B/A eAce|aega ~f3g|aAc/B/A eAce|dB~B2 defg|
a3a2 ece|abga f3g|gffe fedc|dcBc cdcB|
|:Aece Aece|Aece d2cB|Aece Aece|feBc d2cB:|

%-------------------- TUNE SEPARATOR --------------------%

